src/img/hero-bg.svg

<svg xmlns="http://www.w3.org/2000/svg" width="1440" height="616" fill="none"><g clip-path="url(#a)"><path fill="#13A9B2" d="M0 0h1440v616H0z"/><circle cx="4.307" cy="141.335" r="29.876" stroke="#FFD771" stroke-width="2.862"/><circle cx="120.77" cy="112.174" r="15.743" stroke="#FFD771" stroke-width="2.862"/><path fill="#41D2CA" d="m28.54 163.587-36.289 20.951v-41.903l36.289 20.952ZM32.385 415.193l-36.29 20.951v-41.903l36.29 20.952Z"/><circle cx="194.038" cy="287.821" r="77.821" fill="#FFD771"/><path fill="#41D2CA" d="m158.44 305.89-63.33 36.564v-73.128l63.33 36.564Z"/><path fill="#07878E" d="m235.719 305.89-89.629 51.747V254.143l89.629 51.747ZM72.826 163.587l-51.358 29.651v-59.303l51.358 29.652Z"/><circle cx="1436.13" cy="288.866" r="33.272" stroke="#FFD771" stroke-width="3.188"/><circle cx="1360.43" cy="361.709" r="8.567" fill="#FFD771" stroke="#FFD771" stroke-width="3.188"/><path fill="#41D2CA" d="m1463.12 313.647-40.41 23.333v-46.666l40.41 23.333Z"/><path fill="#13A9B3" d="m1370.68 260.942-40.42 23.333V237.61l40.42 23.332Z"/><path fill="#41D2CA" d="m1316.88 400.008-40.41 23.333v-46.666l40.41 23.333Z"/><circle cx="1221.64" cy="205.129" r="34.129" fill="#FFD771"/><path fill="#41D2CA" d="m1206.03 213.053-27.77 16.035v-32.07l27.77 16.035Z"/><path fill="#07878E" d="m1239.92 213.053-39.31 22.694v-45.388l39.31 22.694Z"/><path fill="#42BAC1" fill-rule="evenodd" d="m0 508 24.533 8.051c24.534 8.052 73.6 23.877 122.667 39.98 49.067 16.103 98.133 31.928 147.2 29.984 49.067-1.943 98.133-21.933 147.2-26.097 49.067-3.887 98.133 8.051 147.2 4.164 49.067-4.164 98.133-24.154 147.2-21.933 49.067 1.944 98.133 25.82 147.2 25.82 49.067 0 98.133-23.876 147.2-38.036 49.07-13.882 98.13-17.768 147.2-19.99 49.07-1.943 98.13-1.943 147.2 4.165 49.07 5.83 98.13 18.046 122.67 23.877l24.53 6.108V616H0V508Z" clip-rule="evenodd"/><circle r="28" fill="#FFD771" transform="scale(-1 1) rotate(-31.76 955.58 413.464)"/><circle r="9.873" stroke="#FFD771" stroke-width="1.795" transform="scale(-1 1) rotate(-31.76 873.518 509.801)"/><circle cx="1354.82" cy="525.888" r="28" fill="#FFD771" transform="rotate(-31.76 1354.82 525.888)"/><circle cx="1360.37" cy="100.374" r="13.374" fill="#FFD771"/><circle cx="1401.11" cy="453.105" r="5.991" stroke="#FFD771" stroke-width="2.229"/><circle r="5.991" stroke="#FFD771" stroke-width="2.229" transform="matrix(-1 0 0 1 1440.1 173.105)"/></g><defs><clipPath id="a"><path fill="#fff" d="M0 0h1440v616H0z"/></clipPath></defs></svg>

<svg width="1440" height="616" viewBox="0 0 1440 616" fill="none" xmlns="http://www.w3.org/2000/svg">
<g clip-path="url(#clip0_248_3468)">
<rect width="1440" height="616" fill="#13A9B2"/>
<circle cx="4.30737" cy="141.335" r="29.8762" stroke="#FFD771" stroke-width="2.86239"/>
<circle cx="120.77" cy="112.174" r="15.7431" stroke="#FFD771" stroke-width="2.86239"/>
<path d="M28.54 163.587L-7.7488 184.538L-7.7488 142.635L28.54 163.587Z" fill="#41D2CA"/>
<path d="M32.3848 415.193L-3.90408 436.144L-3.90408 394.241L32.3848 415.193Z" fill="#41D2CA"/>
<circle cx="194.038" cy="287.821" r="77.8212" fill="#FFD771"/>
<path d="M158.44 305.89L95.1101 342.454L95.1101 269.326L158.44 305.89Z" fill="#41D2CA"/>
<path d="M235.719 305.89L146.09 357.637V254.143L235.719 305.89Z" fill="#07878E"/>
<path d="M72.8262 163.587L21.4682 193.238L21.4682 133.935L72.8262 163.587Z" fill="#07878E"/>
<circle cx="1436.13" cy="288.866" r="33.272" stroke="#FFD771" stroke-width="3.18774"/>
<circle cx="1360.43" cy="361.709" r="8.56705" fill="#FFD771" stroke="#FFD771" stroke-width="3.18774"/>
<path d="M1463.12 313.647L1422.71 336.98V290.314L1463.12 313.647Z" fill="#41D2CA"/>
<path d="M1370.68 260.942L1330.26 284.275V237.61L1370.68 260.942Z" fill="#13A9B3"/>
<path d="M1316.88 400.008L1276.47 423.341V376.675L1316.88 400.008Z" fill="#41D2CA"/>
<circle cx="1221.64" cy="205.129" r="34.1288" fill="#FFD771"/>
<path d="M1206.03 213.053L1178.26 229.088V197.018L1206.03 213.053Z" fill="#41D2CA"/>
<path d="M1239.92 213.053L1200.61 235.747V190.359L1239.92 213.053Z" fill="#07878E"/>
<path fill-rule="evenodd" clip-rule="evenodd" d="M0 508L24.5333 516.051C49.0667 524.103 98.1333 539.928 147.2 556.031C196.267 572.134 245.333 587.959 294.4 586.015C343.467 584.072 392.533 564.082 441.6 559.918C490.667 556.031 539.733 567.969 588.8 564.082C637.867 559.918 686.933 539.928 736 542.149C785.067 544.093 834.133 567.969 883.2 567.969C932.267 567.969 981.333 544.093 1030.4 529.933C1079.47 516.051 1128.53 512.165 1177.6 509.943C1226.67 508 1275.73 508 1324.8 514.108C1373.87 519.938 1422.93 532.154 1447.47 537.985L1472 544.093V616H1447.47C1422.93 616 1373.87 616 1324.8 616C1275.73 616 1226.67 616 1177.6 616C1128.53 616 1079.47 616 1030.4 616C981.333 616 932.267 616 883.2 616C834.133 616 785.067 616 736 616C686.933 616 637.867 616 588.8 616C539.733 616 490.667 616 441.6 616C392.533 616 343.467 616 294.4 616C245.333 616 196.267 616 147.2 616C98.1333 616 49.0667 616 24.5333 616H0V508Z" fill="#42BAC1"/>
<circle r="27.9999" transform="matrix(-0.850263 -0.526358 -0.526358 0.850263 74.5445 564.888)" fill="#FFD771"/>
<circle r="9.87317" transform="matrix(-0.850263 -0.526358 -0.526358 0.850263 137.54 536.119)" stroke="#FFD771" stroke-width="1.79512"/>
<circle cx="1354.82" cy="525.888" r="27.9999" transform="rotate(-31.7597 1354.82 525.888)" fill="#FFD771"/>
<circle cx="1360.37" cy="100.374" r="13.3744" fill="#FFD771"/>
<circle cx="1401.11" cy="453.105" r="5.9906" stroke="#FFD771" stroke-width="2.22906"/>
<circle r="5.9906" transform="matrix(-1 0 0 1 1440.1 173.105)" stroke="#FFD771" stroke-width="2.22906"/>
</g>
<defs>
<clipPath id="clip0_248_3468">
<rect width="1440" height="616" fill="white"/>
</clipPath>
</defs>
</svg>
